img/useCases/Unblock Netflix.svg

<svg width="94" height="94" viewBox="0 0 94 94" fill="none" xmlns="http://www.w3.org/2000/svg">
<path d="M93.8002 47.0001C93.8002 72.8471 72.8471 93.8002 47.0001 93.8002C21.1531 93.8002 0.2 72.8471 0.2 47.0001C0.2 21.1531 21.1531 0.2 47.0001 0.2C72.8471 0.2 93.8002 21.1531 93.8002 47.0001Z" fill="#F9FBFF" stroke="#0037FC" stroke-width="0.4"/>
<path d="M61.9858 39.8475H39.8649V34.1062C39.8671 32.2903 40.5841 30.5495 41.8586 29.2655C43.1332 27.9814 44.8612 27.2591 46.6636 27.2569C49.9964 27.2569 53.1208 29.2798 53.6457 32.5281C54.7621 32.0413 58.2782 30.5892 59.0864 30.2031C58.159 27.2112 56.1985 24.6531 53.56 22.9922C50.9215 21.3313 47.7798 20.6776 44.704 21.1495C41.6283 21.6215 38.8222 23.1878 36.7942 25.5647C34.7662 27.9417 33.6505 30.9719 33.6494 34.1062V39.8475H31.3414C30.9857 39.8475 30.6445 39.9898 30.3929 40.2433C30.1414 40.4967 30 40.8404 30 41.1989V66.6402C29.9989 66.8184 30.0328 66.995 30.0997 67.1599C30.1667 67.3249 30.2653 67.4748 30.39 67.6012C30.5146 67.7276 30.6629 67.8279 30.8262 67.8963C30.9895 67.9648 31.1646 68 31.3414 68H61.9858C62.1627 68 62.3378 67.9648 62.5011 67.8963C62.6644 67.8279 62.8126 67.7276 62.9373 67.6012C63.062 67.4748 63.1606 67.3249 63.2275 67.1599C63.2945 66.995 63.3283 66.8184 63.3272 66.6402V41.1989C63.3272 40.8404 63.1859 40.4967 62.9344 40.2433C62.6828 39.9898 62.3416 39.8475 61.9858 39.8475ZM48.7633 55.3255V60.7478C48.7633 60.9704 48.6755 61.1839 48.5192 61.3414C48.363 61.4988 48.151 61.5872 47.9301 61.5872H45.4305C45.2096 61.5872 44.9976 61.4988 44.8414 61.3414C44.6851 61.1839 44.5973 60.9704 44.5973 60.7478V55.3255C43.9643 54.8792 43.4891 54.2412 43.2406 53.5041C42.9921 52.7671 42.9834 51.9695 43.2156 51.2271C43.4479 50.4847 43.909 49.8363 44.5321 49.376C45.1552 48.9157 45.9077 48.6675 46.6803 48.6675C47.4529 48.6675 48.2054 48.9157 48.8285 49.376C49.4515 49.8363 49.9127 50.4847 50.145 51.2271C50.3772 51.9695 50.3685 52.7671 50.12 53.5041C49.8715 54.2412 49.3962 54.8792 48.7633 55.3255Z" fill="#0037FC"/>
</svg>

<svg width="94" height="94" fill="none" xmlns="http://www.w3.org/2000/svg"><path d="M93.8 47c0 25.847-20.953 46.8-46.8 46.8C21.153 93.8.2 72.847.2 47 .2 21.153 21.153.2 47 .2 72.847.2 93.8 21.153 93.8 47z" fill="#F9FBFF" stroke="#0037FC" stroke-width=".4"/><path d="M61.986 39.847H39.865v-5.74a6.884 6.884 0 011.994-4.841 6.782 6.782 0 014.805-2.01c3.332 0 6.457 2.024 6.982 5.272 1.116-.487 4.632-1.939 5.44-2.325a13.098 13.098 0 00-5.526-7.21 12.936 12.936 0 00-8.856-1.843 12.99 12.99 0 00-7.91 4.415 13.169 13.169 0 00-3.145 8.541v5.741h-2.308c-.355 0-.697.143-.948.396A1.357 1.357 0 0030 41.2v25.44a1.36 1.36 0 00.39.961 1.339 1.339 0 00.951.399h30.645a1.332 1.332 0 00.951-.399 1.35 1.35 0 00.39-.96V41.198c0-.359-.141-.702-.393-.956a1.336 1.336 0 00-.948-.396zM48.763 55.325v5.423a.843.843 0 01-.244.593.83.83 0 01-.589.246h-2.5a.83.83 0 01-.589-.246.843.843 0 01-.244-.593v-5.422a3.657 3.657 0 01-1.356-1.822 3.686 3.686 0 01-.025-2.277 3.659 3.659 0 011.316-1.851 3.615 3.615 0 014.297 0 3.66 3.66 0 011.316 1.851 3.69 3.69 0 01-.025 2.277 3.658 3.658 0 01-1.357 1.822z" fill="#0037FC"/></svg>
